X:4
T:Duncan Davidson's
M:4/4
L:1/8
F:http://blackrosetheband.googlepages.com/ABCTUNES.ABC May 2009
S:Altan: The Blue Idol - Track 09, Tune 3
R:highland
K:Dmaj
"D"DFAB A<F d2|DFAB A<F "A"E2|"D"DFAB A<F d>e|(3fga "A"(3efg "D"f<d d2|
"D"DFAB A<F d2|DFAB A<F "A"E2|"D"DFAB A<F d>e|(3fga "A"(3efg "D"f<d d>e|
"D"f<d fa gfed|"A"c<A AB cdeg|"D"f<d fa gfed|"A"(3Bcd (3efg "D"f<d d>e|
"D"f<d fa gfed|"A"c<A AB cdeg|"D"(3fga (3agf "G"(3gab (3bag|"D"(3fga "A"(3efg "D"f<d d2|
